X: 11821
T: SWISS AIR
%R: reel
B: W. Hamilton "Universal Tune-Book" Vol. 1 Glasgow 1844 p.182 #1
S: http://imslp.org/wiki/Hamilton's_Universal_Tune-Book_(Various)
Z: 2016 John Chambers <jc:trillian.mit.edu>
M: 2/4
L: 1/16
K: G
% - - - - - - - - - - - - - - - - - - - - - - - - -
[|\
d2de d2de | d2g2B2z2 | c2c2B2B2 | A2d2d2z2 |\
d2de d2de | d2g2B2z2 | c2c2B2B2 | A2d2d2z2 |\
d2ba g2d2 | d2c'b a2d2 | d2ba g2d2 | d2c'b a2d2 |
d2de d2de | d2g2b2z2 | a2a2 gfef | g2b2g2z2 |\
d2de d2de | .d2.b2"_>"g4 | .d2.c'2"_>"a4 | .d2.b2"_>"g4 |\
d2de d2de | d2b2g4 | d2d'2 c'3f | g6z2 |]
% - - - - - - - - - - - - - - - - - - - - - - - - -

%%sep 1 1 500
%%sep 1 1 500

